X:407
T:The return from India
R:Reel
O:Scotland
B:Kerr's First p8
S:Kerr's First p8
Z:Transcription, chords:Mike Long
M:C|
L:1/8
K:A
e|:\
"A"dcBA cAce|"A"dcBA "E"GBEe|"A"dcBA "D"cAeA|[1 "E"fAgA "A"afec:|
[2 "E"fAgA "A"aAA|]\
e|\
"A"agae agae|"D"dcBA "E"GBBe|"A"agae agae|
"D"fefg "A"aAAe|\
"A"aAgA "D"fAeA|"A"dcBA "E"GBed|"A"cABc "D"defg|"E"agfg "A"aAA|]
